public/images/methodologyLine.svg

<svg width="564" height="204" viewBox="0 0 564 204" fill="none" xmlns="http://www.w3.org/2000/svg">
<path d="M282 2.00001L282 167.5M282 202L282 167.5M282 167.5V167.5C282 147.894 297.894 132 317.5 132L462 132C517.228 132 562 87.2285 562 32L562 2.00005" stroke="url(#paint0_linear_134_16)" stroke-width="3" stroke-linecap="round"/>
<path d="M282 2.00001L282 167.5M282 202L282 167.5M282 167.5V167.5C282 147.894 266.106 132 246.5 132L102 132C46.7715 132 2 87.2285 2 32L2 2.00005" stroke="url(#paint1_linear_134_16)" stroke-width="3" stroke-linecap="round"/>
<defs>
<linearGradient id="paint0_linear_134_16" x1="281.454" y1="1.99996" x2="281.454" y2="202" gradientUnits="userSpaceOnUse">
<stop stop-opacity="0"/>
<stop offset="1" stop-color="#221BD3"/>
</linearGradient>
<linearGradient id="paint1_linear_134_16" x1="282.546" y1="1.99996" x2="282.546" y2="202" gradientUnits="userSpaceOnUse">
<stop stop-opacity="0"/>
<stop offset="1" stop-color="#221BD3"/>
</linearGradient>
</defs>
</svg>

<svg xmlns="http://www.w3.org/2000/svg" width="564" height="204" fill="none"><defs><filter id="a" width="200%" height="200%" x="-50%" y="-50%"><feDropShadow dx="0" dy="0" flood-color="rgba(15, 13, 98, 1)" flood-opacity="1" stdDeviation="53.9"/></filter><filter id="b" width="200%" height="200%" x="-50%" y="-50%"><feDropShadow dx="0" dy="0" flood-color="rgba(15, 13, 98, 1)" flood-opacity="1" stdDeviation="107.81"/></filter><filter id="c" width="200%" height="200%" x="-50%" y="-50%"><feDropShadow dx="0" dy="0" flood-color="rgba(15, 13, 98, 1)" flood-opacity="1" stdDeviation="377.32"/></filter><filter id="d" width="200%" height="200%" x="-50%" y="-50%"><feDropShadow dx="0" dy="0" flood-color="rgba(15, 13, 98, 1)" flood-opacity="1" stdDeviation="754.64"/></filter><filter id="e" width="200%" height="200%" x="-50%" y="-50%"><feDropShadow dx="0" dy="0" flood-color="rgba(15, 13, 98, 1)" flood-opacity="1" stdDeviation="1293.67"/></filter><filter id="f" width="200%" height="200%" x="-50%" y="-50%"><feDropShadow dx="0" dy="0" flood-color="rgba(15, 13, 98, 1)" flood-opacity="1" stdDeviation="2263.92"/></filter><linearGradient id="g" x1="281.454" x2="281.454" y1="2" y2="202" gradientUnits="userSpaceOnUse"><stop stop-opacity="0"/><stop offset="1" stop-color="#221BD3"/></linearGradient><linearGradient id="h" x1="282.546" x2="282.546" y1="2" y2="202" gradientUnits="userSpaceOnUse"><stop stop-opacity="0"/><stop offset="1" stop-color="#221BD3"/></linearGradient></defs><g filter="url(#a)"><g filter="url(#b)"><g filter="url(#c)"><g filter="url(#d)"><g filter="url(#e)"><g stroke-linecap="round" stroke-width="3" filter="url(#f)"><path stroke="url(#g)" d="M282 2v165.5m0 34.5v-34.5m0 0v0c0-19.606 15.894-35.5 35.5-35.5H462c55.228 0 100-44.771 100-100V2"/><path stroke="url(#h)" d="M282 2v165.5m0 34.5v-34.5m0 0v0c0-19.606-15.894-35.5-35.5-35.5H102C46.772 132 2 87.229 2 32V2"/></g></g></g></g></g></g></svg>
